X: 2601
T: Airdrie Lassies
P: Airdrie Lassies
C:Trad.
R:Jig (4x48) ABABAB
B:RSCDS 26-1
Z:Anselm Lingnau <anselm@strathspey.org>
M:6/8
L:1/8
K:G
B|"G"G2B dcB|def gdc|BGB dcB|"Am"cBc "D7"A2 B|
  "G"G2B dcB|def gdc|"Em"BGB "G"dcB|"D7"def "G"g3||
  "G"[B3d3b3] "Em"[B3g3]|"A7"{b}a^ga "D7"f=ga|\
                              "G"[B3g3] "A"[^c3e3]|"D"fef "D7"def|
  "G"[B3d3b3] "Em"[B3g3]|"A7"{b}a^ga "D7"f=ga|\
                              "G"[B3g3] "Am"[c3e3]|"D7"def "G"[B2g2]|]
%%center Book26/2601-Airdrie_Lassies-AL.abc

%%sep 1 1 500
%%sep 1 1 500

